Suru++-Ubuntu/apps/scalable/wordpress.svg

<svg width="256" height="256" version="1.1" viewBox="0 0 67.73 67.73" xmlns="http://www.w3.org/2000/svg" xmlns:xlink="http://www.w3.org/1999/xlink">
 <defs>
  <linearGradient id="linearGradient1108" x1="296" x2="296" y1="-212" y2="236" gradientUnits="userSpaceOnUse">
   <stop style="stop-color:#ffffff" offset="0"/>
   <stop style="stop-color:#ffffff;stop-opacity:.09803922" offset=".125"/>
   <stop style="stop-color:#000000;stop-opacity:0" offset=".925"/>
   <stop style="stop-color:#000000;stop-opacity:0" offset="1"/>
  </linearGradient>
  <clipPath id="clipPath1082-3-78">
   <path d="M 361.9375,-212 C 507.2348,-212 528,-191.28677 528,-46.125 V 70.125 C 528,215.28618 507.2348,236 361.9375,236 H 214.0625 C 68.7652,236 48,215.28618 48,70.125 V -46.125 C 48,-191.28677 68.7652,-212 214.0625,-212 Z" style="fill:#8c59d9"/>
  </clipPath>
  <filter id="filter953" x="-.02" y="-.03" width="1.046" height="1.05" style="color-interpolation-filters:sRGB">
   <feGaussianBlur stdDeviation="2.32"/>
  </filter>
  <filter id="filter4569" x="-.01" y="-.01" width="1.023" height="1.025" style="color-interpolation-filters:sRGB">
   <feGaussianBlur stdDeviation="1.16"/>
  </filter>
  <filter id="filter1393" x="-.05" y="-.05" width="1.096" height="1.096" style="color-interpolation-filters:sRGB">
   <feGaussianBlur stdDeviation="1.058"/>
  </filter>
 </defs>
 <g transform="translate(0,-229.26666)">
  <path transform="matrix(.26970779 0 0 .26970779 -1.9098094e-8 231.46531)" d="m162.53675 3.5680001c72.64865 0 83.03125 10.356615 83.03125 82.937505v58.125005c0 72.58059-10.3826 82.9375-83.03125 82.9375h-73.937496c-72.648654 0-83.031254-10.35691-83.031254-82.9375v-58.125005c0-72.58089 10.3826-82.937505 83.031254-82.937505z" style="filter:url(#filter4569);opacity:.1"/>
  <path transform="matrix(.26970779 0 0 .26970779 -1.9098094e-8 231.46531)" d="m162.53675 5.5680001c72.64865 0 83.03125 10.356615 83.03125 82.937505v58.125005c0 72.58059-10.3826 82.9375-83.03125 82.9375h-73.937496c-72.648654 0-83.031254-10.35691-83.031254-82.9375v-58.125005c0-72.58089 10.3826-82.937505 83.031254-82.937505z" style="filter:url(#filter953);opacity:.2"/>
  <path d="m43.837427 232.42763c19.593907 0 22.394175 2.79326 22.394175 22.36889v15.67677c0 19.57555-2.800268 22.36889-22.394175 22.36889h-19.94152c-19.593908 0-22.394176-2.79334-22.394176-22.36889v-15.67677c0-19.57563 2.8002682-22.36889 22.394176-22.36889z" style="fill:none;opacity:.2;stroke-linecap:round;stroke-linejoin:round;stroke-width:1.0788311;stroke:#000000"/>
  <path d="m43.837427 232.42763c19.593907 0 22.394175 2.79326 22.394175 22.36889v15.67677c0 19.57555-2.800268 22.36889-22.394175 22.36889h-19.94152c-19.593908 0-22.394176-2.79334-22.394176-22.36889v-15.67677c0-19.57563 2.8002682-22.36889 22.394176-22.36889z" style="fill:#004b75"/>
  <path transform="matrix(.1348539 0 0 .1348539 -4.9712562 261.01666)" d="M 361.9375,-212 C 507.2348,-212 528,-191.28677 528,-46.125 V 70.125 C 528,215.28618 507.2348,236 361.9375,236 H 214.0625 C 68.7652,236 48,215.28618 48,70.125 V -46.125 C 48,-191.28677 68.7652,-212 214.0625,-212 Z" clip-path="url(#clipPath1082-3-78)" style="fill:none;opacity:.5;stroke-linecap:round;stroke-linejoin:round;stroke-width:8;stroke:url(#linearGradient1108)"/>
  <g transform="translate(.2953855 .19929352)">
   <g style="filter:url(#filter1393);opacity:.3">
    <g transform="matrix(.18459369 0 0 -.18459369 10.820365 262.43575)">
     <path d="M 0,0 C 0,-49.187 28.833,-91.648 70.512,-111.414 L 11.074,51.111 C 3.967,35.54 0,18.232 0,0"/>
    </g>
    <g transform="matrix(.18459369 0 0 -.18459369 26.955055 284.20761)">
     <path d="m0 0c11.343-3.444 23.375-5.304 35.842-5.304 14.475 0 28.364 2.505 41.266 7.092l-39.139 107.022z"/>
    </g>
    <g transform="matrix(.18459369 0 0 -.18459369 22.816612 250.09028)">
     <path d="m0 0v-7.378c0-0.677-0.529-1.23-1.177-1.23h-14.271c-1.596 0-2.268-0.963-1.708-2.613l44.76-131.853 27.236 82.229-18.107 49.513c-0.657 1.796-1.437 2.724-4.223 2.724h-12.525c-0.648 0-1.177 0.554-1.177 1.23v7.378c0 0.676 0.531 1.258 1.177 1.229 23.307-1.039 46.758-1.031 70.347 0 0.646 0.028 1.177-0.553 1.177-1.229v-7.378c0-0.677-0.529-1.23-1.177-1.23h-12.456c-2.47 0-3.265-1.142-2.583-3.15l44.061-129.79 16.178 49.243c19.56 59.536-16.735 65.836-15.833 95.435 0.446 14.641 11.179 21.032 21.932 20.747-21.945 20.171-51.22 32.492-83.371 32.492-43.348 0-81.471-22.393-103.442-56.238 14.001 0.143 29.031 0.303 44.004 1.099 0.647 0.033 1.178-0.553 1.178-1.23"/>
    </g>
    <g transform="matrix(.18459369 0 0 -.18459369 33.571281 287.3212)">
     <path transform="matrix(.8 0 0 -.8 -256 390.812)" d="m320 140.83203c-98.93375 0-179.16602 80.23422-179.16602 179.16797s80.23227 179.16602 179.16602 179.16602 179.16602-80.23227 179.16602-179.16602-80.23227-179.16797-179.16602-179.16797zm0 10.65235c93.05125 0 168.51563 75.46312 168.51562 168.51562 0 93.05125-75.46312 168.51563-168.51562 168.51562-93.0525 0-168.51562-75.46437-168.51562-168.51562 0-93.0525 75.46437-168.51563 168.51562-168.51562z"/>
    </g>
    <g transform="matrix(.18459369 0 0 -.18459369 53.581313 251.60265)">
     <path d="m0 0c0.675-18.336-4.852-41.105-10.803-57.957l-38.445-108.869c38.193 20.94 64.096 61.519 64.096 108.141 0 21.244-5.378 41.235-14.848 58.685"/>
    </g>
   </g>
   <g transform="matrix(.18459369 0 0 -.18459369 10.820365 262.43575)" style="fill:#ffffff">
    <path d="M 0,0 C 0,-49.187 28.833,-91.648 70.512,-111.414 L 11.074,51.111 C 3.967,35.54 0,18.232 0,0" style="fill:#ffffff"/>
   </g>
   <g transform="matrix(.18459369 0 0 -.18459369 26.955055 284.20761)" style="fill:#ffffff">
    <path d="m0 0c11.343-3.444 23.375-5.304 35.842-5.304 14.475 0 28.364 2.505 41.266 7.092l-39.139 107.022z" style="fill:#ffffff"/>
   </g>
   <g transform="matrix(.18459369 0 0 -.18459369 22.816612 250.09028)" style="fill:#ffffff">
    <path d="m0 0v-7.378c0-0.677-0.529-1.23-1.177-1.23h-14.271c-1.596 0-2.268-0.963-1.708-2.613l44.76-131.853 27.236 82.229-18.107 49.513c-0.657 1.796-1.437 2.724-4.223 2.724h-12.525c-0.648 0-1.177 0.554-1.177 1.23v7.378c0 0.676 0.531 1.258 1.177 1.229 23.307-1.039 46.758-1.031 70.347 0 0.646 0.028 1.177-0.553 1.177-1.229v-7.378c0-0.677-0.529-1.23-1.177-1.23h-12.456c-2.47 0-3.265-1.142-2.583-3.15l44.061-129.79 16.178 49.243c19.56 59.536-16.735 65.836-15.833 95.435 0.446 14.641 11.179 21.032 21.932 20.747-21.945 20.171-51.22 32.492-83.371 32.492-43.348 0-81.471-22.393-103.442-56.238 14.001 0.143 29.031 0.303 44.004 1.099 0.647 0.033 1.178-0.553 1.178-1.23" style="fill:#ffffff"/>
   </g>
   <g transform="matrix(.18459369 0 0 -.18459369 33.571281 287.3212)" style="fill:#ffffff">
    <path transform="matrix(.8 0 0 -.8 -256 390.812)" d="m320 140.83203c-98.93375 0-179.16602 80.23422-179.16602 179.16797s80.23227 179.16602 179.16602 179.16602 179.16602-80.23227 179.16602-179.16602-80.23227-179.16797-179.16602-179.16797zm0 10.65235c93.05125 0 168.51563 75.46312 168.51562 168.51562 0 93.05125-75.46312 168.51563-168.51562 168.51562-93.0525 0-168.51562-75.46437-168.51562-168.51562 0-93.0525 75.46437-168.51563 168.51562-168.51562z" style="fill:#ffffff"/>
   </g>
   <g transform="matrix(.18459369 0 0 -.18459369 53.581313 251.60265)" style="fill:#ffffff">
    <path d="m0 0c0.675-18.336-4.852-41.105-10.803-57.957l-38.445-108.869c38.193 20.94 64.096 61.519 64.096 108.141 0 21.244-5.378 41.235-14.848 58.685" style="fill:#ffffff"/>
   </g>
  </g>
 </g>
</svg>

<svg xmlns="http://www.w3.org/2000/svg" xmlns:xlink="http://www.w3.org/1999/xlink" width="256" height="256" version="1.1" viewBox="0 0 67.73 67.73">
 <defs>
  <linearGradient id="linearGradient1108" x1="296" x2="296" y1="-212" y2="236" gradientUnits="userSpaceOnUse" xlink:href="#linearGradient1013"/>
  <linearGradient id="linearGradient1013">
   <stop offset="0" style="stop-color:#ffffff"/>
   <stop style="stop-color:#ffffff;stop-opacity:0.09803922" offset=".125"/>
   <stop style="stop-color:#000000;stop-opacity:0" offset=".925"/>
   <stop offset="1" style="stop-color:#000000;stop-opacity:0"/>
  </linearGradient>
  <clipPath id="clipPath1082-3-78" clipPathUnits="userSpaceOnUse">
   <path d="M 361.9375,-212 C 507.2348,-212 528,-191.28677 528,-46.125 V 70.125 C 528,215.28618 507.2348,236 361.9375,236 H 214.0625 C 68.7652,236 48,215.28618 48,70.125 V -46.125 C 48,-191.28677 68.7652,-212 214.0625,-212 Z" style="fill:#8c59d9"/>
  </clipPath>
  <filter style="color-interpolation-filters:sRGB" id="filter953" width="1.046" height="1.05" x="-.02" y="-.03">
   <feGaussianBlur stdDeviation="2.32"/>
  </filter>
  <filter style="color-interpolation-filters:sRGB" id="filter4569" width="1.023" height="1.025" x="-.01" y="-.01">
   <feGaussianBlur stdDeviation="1.16"/>
  </filter>
  <filter style="color-interpolation-filters:sRGB" id="filter1393" width="1.096" height="1.096" x="-.05" y="-.05">
   <feGaussianBlur stdDeviation="1.058"/>
  </filter>
 </defs>
 <g transform="translate(0,-229.26666)">
  <path d="m 162.53675,3.5680001 c 72.64865,0 83.03125,10.3566149 83.03125,82.9375049 v 58.125005 c 0,72.58059 -10.3826,82.9375 -83.03125,82.9375 H 88.599254 C 15.9506,227.56801 5.568,217.2111 5.568,144.63051 V 86.505505 c 0,-72.58089 10.3826,-82.9375049 83.031254,-82.9375049 z" transform="matrix(0.26970779,0,0,0.26970779,-1.9098094e-8,231.46531)" style="opacity:0.1;filter:url(#filter4569)"/>
  <path style="opacity:0.2;filter:url(#filter953)" d="m 162.53675,5.5680001 c 72.64865,0 83.03125,10.3566149 83.03125,82.9375049 v 58.125005 c 0,72.58059 -10.3826,82.9375 -83.03125,82.9375 H 88.599254 C 15.9506,229.56801 5.568,219.2111 5.568,146.63051 V 88.505505 c 0,-72.58089 10.3826,-82.9375049 83.031254,-82.9375049 z" transform="matrix(0.26970779,0,0,0.26970779,-1.9098094e-8,231.46531)"/>
  <path d="m 43.837427,232.42763 c 19.593907,0 22.394175,2.79326 22.394175,22.36889 v 15.67677 c 0,19.57555 -2.800268,22.36889 -22.394175,22.36889 h -19.94152 c -19.5939078,0 -22.394176,-2.79334 -22.394176,-22.36889 v -15.67677 c 0,-19.57563 2.8002682,-22.36889 22.394176,-22.36889 z" style="opacity:0.2;fill:none;stroke:#000000;stroke-width:1.07883108;stroke-linecap:round;stroke-linejoin:round"/>
  <path style="fill:#004b75" d="m 43.837427,232.42763 c 19.593907,0 22.394175,2.79326 22.394175,22.36889 v 15.67677 c 0,19.57555 -2.800268,22.36889 -22.394175,22.36889 h -19.94152 c -19.5939078,0 -22.394176,-2.79334 -22.394176,-22.36889 v -15.67677 c 0,-19.57563 2.8002682,-22.36889 22.394176,-22.36889 z"/>
  <path d="M 361.9375,-212 C 507.2348,-212 528,-191.28677 528,-46.125 V 70.125 C 528,215.28618 507.2348,236 361.9375,236 H 214.0625 C 68.7652,236 48,215.28618 48,70.125 V -46.125 C 48,-191.28677 68.7652,-212 214.0625,-212 Z" clip-path="url(#clipPath1082-3-78)" transform="matrix(0.1348539,0,0,0.1348539,-4.9712562,261.01666)" style="opacity:0.5;fill:none;stroke:url(#linearGradient1108);stroke-width:8;stroke-linecap:round;stroke-linejoin:round"/>
  <g transform="translate(0.2953855,0.19929352)">
   <g style="filter:url(#filter1393);opacity:0.3">
    <g transform="matrix(0.18459369,0,0,-0.18459369,10.820365,262.43575)">
     <path d="M 0,0 C 0,-49.187 28.833,-91.648 70.512,-111.414 L 11.074,51.111 C 3.967,35.54 0,18.232 0,0"/>
    </g>
    <g transform="matrix(0.18459369,0,0,-0.18459369,26.955055,284.20761)">
     <path d="m 0,0 c 11.343,-3.444 23.375,-5.304 35.842,-5.304 14.475,0 28.364,2.505 41.266,7.092 L 37.969,108.81 Z"/>
    </g>
    <g transform="matrix(0.18459369,0,0,-0.18459369,22.816612,250.09028)">
     <path d="m 0,0 v -7.378 c 0,-0.677 -0.529,-1.23 -1.177,-1.23 h -14.271 c -1.596,0 -2.268,-0.963 -1.708,-2.613 l 44.76,-131.853 27.236,82.229 -18.107,49.513 c -0.657,1.796 -1.437,2.724 -4.223,2.724 H 19.985 c -0.648,0 -1.177,0.554 -1.177,1.23 V 0 c 0,0.676 0.531,1.258 1.177,1.229 23.307,-1.039 46.758,-1.031 70.347,0 C 90.978,1.257 91.509,0.676 91.509,0 v -7.378 c 0,-0.677 -0.529,-1.23 -1.177,-1.23 H 77.876 c -2.47,0 -3.265,-1.142 -2.583,-3.15 l 44.061,-129.79 16.178,49.243 c 19.56,59.536 -16.735,65.836 -15.833,95.435 0.446,14.641 11.179,21.032 21.932,20.747 C 119.686,44.048 90.411,56.369 58.26,56.369 14.912,56.369 -23.211,33.976 -45.182,0.131 -31.181,0.274 -16.151,0.434 -1.178,1.23 -0.531,1.263 0,0.677 0,0"/>
    </g>
    <g transform="matrix(0.18459369,0,0,-0.18459369,33.571281,287.3212)">
     <path d="m 320,140.83203 c -98.93375,0 -179.16602,80.23422 -179.16602,179.16797 0,98.93375 80.23227,179.16602 179.16602,179.16602 98.93375,0 179.16602,-80.23227 179.16602,-179.16602 0,-98.93375 -80.23227,-179.16797 -179.16602,-179.16797 z m 0,10.65235 c 93.05125,0 168.51563,75.46312 168.51562,168.51562 0,93.05125 -75.46312,168.51563 -168.51562,168.51562 -93.0525,0 -168.51562,-75.46437 -168.51562,-168.51562 0,-93.0525 75.46437,-168.51563 168.51562,-168.51562 z" transform="matrix(0.8,0,0,-0.8,-256,390.812)"/>
    </g>
    <g transform="matrix(0.18459369,0,0,-0.18459369,53.581313,251.60265)">
     <path d="m 0,0 c 0.675,-18.336 -4.852,-41.105 -10.803,-57.957 l -38.445,-108.869 c 38.193,20.94 64.096,61.519 64.096,108.141 C 14.848,-37.441 9.47,-17.45 0,0"/>
    </g>
   </g>
   <g>
    <g style="fill:#ffffff" transform="matrix(0.18459369,0,0,-0.18459369,10.820365,262.43575)">
     <path style="fill:#ffffff" d="M 0,0 C 0,-49.187 28.833,-91.648 70.512,-111.414 L 11.074,51.111 C 3.967,35.54 0,18.232 0,0"/>
    </g>
    <g style="fill:#ffffff" transform="matrix(0.18459369,0,0,-0.18459369,26.955055,284.20761)">
     <path style="fill:#ffffff" d="m 0,0 c 11.343,-3.444 23.375,-5.304 35.842,-5.304 14.475,0 28.364,2.505 41.266,7.092 L 37.969,108.81 Z"/>
    </g>
    <g style="fill:#ffffff" transform="matrix(0.18459369,0,0,-0.18459369,22.816612,250.09028)">
     <path style="fill:#ffffff" d="m 0,0 v -7.378 c 0,-0.677 -0.529,-1.23 -1.177,-1.23 h -14.271 c -1.596,0 -2.268,-0.963 -1.708,-2.613 l 44.76,-131.853 27.236,82.229 -18.107,49.513 c -0.657,1.796 -1.437,2.724 -4.223,2.724 H 19.985 c -0.648,0 -1.177,0.554 -1.177,1.23 V 0 c 0,0.676 0.531,1.258 1.177,1.229 23.307,-1.039 46.758,-1.031 70.347,0 C 90.978,1.257 91.509,0.676 91.509,0 v -7.378 c 0,-0.677 -0.529,-1.23 -1.177,-1.23 H 77.876 c -2.47,0 -3.265,-1.142 -2.583,-3.15 l 44.061,-129.79 16.178,49.243 c 19.56,59.536 -16.735,65.836 -15.833,95.435 0.446,14.641 11.179,21.032 21.932,20.747 C 119.686,44.048 90.411,56.369 58.26,56.369 14.912,56.369 -23.211,33.976 -45.182,0.131 -31.181,0.274 -16.151,0.434 -1.178,1.23 -0.531,1.263 0,0.677 0,0"/>
    </g>
    <g style="fill:#ffffff" transform="matrix(0.18459369,0,0,-0.18459369,33.571281,287.3212)">
     <path style="fill:#ffffff" d="m 320,140.83203 c -98.93375,0 -179.16602,80.23422 -179.16602,179.16797 0,98.93375 80.23227,179.16602 179.16602,179.16602 98.93375,0 179.16602,-80.23227 179.16602,-179.16602 0,-98.93375 -80.23227,-179.16797 -179.16602,-179.16797 z m 0,10.65235 c 93.05125,0 168.51563,75.46312 168.51562,168.51562 0,93.05125 -75.46312,168.51563 -168.51562,168.51562 -93.0525,0 -168.51562,-75.46437 -168.51562,-168.51562 0,-93.0525 75.46437,-168.51563 168.51562,-168.51562 z" transform="matrix(0.8,0,0,-0.8,-256,390.812)"/>
    </g>
    <g style="fill:#ffffff" transform="matrix(0.18459369,0,0,-0.18459369,53.581313,251.60265)">
     <path style="fill:#ffffff" d="m 0,0 c 0.675,-18.336 -4.852,-41.105 -10.803,-57.957 l -38.445,-108.869 c 38.193,20.94 64.096,61.519 64.096,108.141 C 14.848,-37.441 9.47,-17.45 0,0"/>
    </g>
   </g>
  </g>
 </g>
</svg>
